X: 390
%
U:~=!turn!
T: Miss Campbell of Menzies
C:Donald Dow
O:Scotland
B:Keith Norman MacDonald : "The Skye collection of the best reels & strathspeys extant" : 1887
Z:Ralph Palmer
R:Reel
M:C
L:1/8
K:C
e | c2 Gc (ec)GE | FdEc dDDB | c2 Gc (ec)GE | FADF ECC :|
f | ecgc acgc | ec (a/g/f/e/) (fd)df | (gc)ac (gc)ec | Bcdf eccf |
(ec)gc (ac)gc | egce fddf | gecf afdc | Bcdf ecc |]


